icons/4_Outdated/Codeberg v1.svg

<svg width="1024" height="1024" fill="none" xmlns="http://www.w3.org/2000/svg"><g clip-path="url(#a)"><path d="M512 1024c282.77 0 512-229.23 512-512S794.77 0 512 0 0 229.23 0 512s229.23 512 512 512Z" fill="#9ABEFF"/><path d="M553.78 583.048c2.146 2.854 3.22 7.504 3.22 13.95a38.48 38.48 0 0 1-1 9.23 18.322 18.322 0 0 1-2.79 6.32 11.374 11.374 0 0 1-4.44 3.65 14.16 14.16 0 0 1-5.81 1.14 15.988 15.988 0 0 1-6-1.14 13.722 13.722 0 0 1-5.18-4.16v-26.25a22.582 22.582 0 0 1 5.75-5.18 13.09 13.09 0 0 1 7.06-1.88 10.707 10.707 0 0 1 9.19 4.32Zm63.28-1.25a10.416 10.416 0 0 0-3.93-2.85 12.909 12.909 0 0 0-5.47-1.08c-4.1 0-7.31 1.16-9.63 3.48-2.32 2.32-3.8 5.607-4.44 9.86h26.55a16.133 16.133 0 0 0-.8-5.13 11.869 11.869 0 0 0-2.29-4.28h.01Zm-125.51 0a10.416 10.416 0 0 0-3.93-2.85 12.909 12.909 0 0 0-5.47-1.08c-4.1 0-7.31 1.16-9.63 3.48-2.32 2.32-3.8 5.607-4.44 9.86h26.55a16.133 16.133 0 0 0-.8-5.13 11.869 11.869 0 0 0-2.29-4.28h.01Zm-138.9-3.25c-4.94 0-8.607 1.667-11 5-2.394 3.334-3.57 8.12-3.53 14.36 0 6.267 1.176 11.054 3.53 14.36 2.353 3.307 6.02 4.94 11 4.9 4.86 0 8.45-1.633 10.77-4.9 2.32-3.266 3.496-8.053 3.53-14.36 0-6.306-1.177-11.11-3.53-14.41-2.354-3.3-5.947-4.95-10.78-4.95h.01Zm71 1a15.192 15.192 0 0 0-6-1.2 13.468 13.468 0 0 0-5.75 1.2 11.497 11.497 0 0 0-4.39 3.65 17.077 17.077 0 0 0-2.79 6.15 35.012 35.012 0 0 0-1 8.77 40.774 40.774 0 0 0 .8 8.72 17.846 17.846 0 0 0 2.39 5.81 9.278 9.278 0 0 0 3.76 3.25c1.578.68 3.281 1.02 5 1a14.386 14.386 0 0 0 7.46-1.82 22.157 22.157 0 0 0 5.81-5.18v-26.28a13.79 13.79 0 0 0-5.29-4.1v.03Zm282.56-2c-3.454 0-6.054.854-7.8 2.56a9.128 9.128 0 0 0-2.56 6.84 11.31 11.31 0 0 0 .63 3.82 9.183 9.183 0 0 0 1.94 3.08 9.571 9.571 0 0 0 3.25 2 14 14 0 0 0 4.56.68 13.683 13.683 0 0 0 4.56-.68 9.006 9.006 0 0 0 3.19-2 7.658 7.658 0 0 0 1.94-3c.465-1.236.695-2.549.68-3.87a9.006 9.006 0 0 0-2.62-6.84c-1.727-1.74-4.317-2.61-7.77-2.61v.02Zm-11.85 48.82a6.337 6.337 0 0 0-1.42 4.1 5.678 5.678 0 0 0 .74 2.85c.6.98 1.444 1.786 2.45 2.34a14.448 14.448 0 0 0 4.39 1.48c4.411.777 8.926.757 13.33-.06a14.878 14.878 0 0 0 4.67-1.65 6.793 6.793 0 0 0 2.73-2.51 6.004 6.004 0 0 0 .85-3.13 3.701 3.701 0 0 0-1-2.73 7.011 7.011 0 0 0-2.79-1.71 19.415 19.415 0 0 0-4.16-.91 68.34 68.34 0 0 0-5-.4c-1.774-.08-3.597-.173-5.47-.28a60.304 60.304 0 0 1-5.47-.46 13.577 13.577 0 0 0-3.85 3.05v.02Zm166.72 61.91-672.15-6 192.48-414.54 161.26 141.11-58.16 66.47-19.6-17.15-20.7 23.65 43.26 37.85 87.36-99.84-.28-.24 38.92-44.48 247.61 313.17Zm-528.36-252.21 23.66 20.69 60.37-69 46.56 40.73 20.69-23.69-70.21-61.43-81.07 92.7Zm-13.66 182.36-4-5.13a2.858 2.858 0 0 0-2.56-1.31 3.77 3.77 0 0 0-2.39.85 50.5 50.5 0 0 1-2.45 1.82 18.923 18.923 0 0 1-3.53 1.82 15.228 15.228 0 0 1-5.41.8 14.08 14.08 0 0 1-6-1.25 12.745 12.745 0 0 1-4.56-3.76 18.477 18.477 0 0 1-2.91-6.15 35.986 35.986 0 0 1-.06-16.35 17.617 17.617 0 0 1 2.73-6.1 12.298 12.298 0 0 1 4.67-3.82 16.66 16.66 0 0 1 11.34-.68c1.194.358 2.342.855 3.42 1.48a42.094 42.094 0 0 1 2.45 1.48c.63.404 1.361.622 2.11.63a2.697 2.697 0 0 0 1.71-.46 6.52 6.52 0 0 0 1.25-1.25l3.7-5.13a28.014 28.014 0 0 0-8.89-6 28.784 28.784 0 0 0-11.45-2.11 30.637 30.637 0 0 0-12.23 2.25 24.785 24.785 0 0 0-8.89 6.32 27 27 0 0 0-5.47 9.51 40.447 40.447 0 0 0 .23 24.73 28.575 28.575 0 0 0 5.7 9.46 24.402 24.402 0 0 0 8.37 5.92 26.24 26.24 0 0 0 10.2 2 41.926 41.926 0 0 0 6.15-.46 27.557 27.557 0 0 0 11.71-4.54 26.194 26.194 0 0 0 5.06-4.57Zm62.4-20.62a36.025 36.025 0 0 0-2.05-12.48 26.078 26.078 0 0 0-5.87-9.46 25.577 25.577 0 0 0-9.12-6 31.668 31.668 0 0 0-11.79-2.11 32.253 32.253 0 0 0-11.91 2.11 26.141 26.141 0 0 0-9.17 6 27.134 27.134 0 0 0-5.87 9.46 39.14 39.14 0 0 0 0 25 27.725 27.725 0 0 0 5.87 9.51 25.74 25.74 0 0 0 9.17 6 32.248 32.248 0 0 0 11.92 2.16c4.028.054 8.03-.662 11.79-2.11a25.182 25.182 0 0 0 9.12-6 26.643 26.643 0 0 0 5.87-9.51 36.162 36.162 0 0 0 2.04-12.57Zm61.54-55.32h-14.11v30.88a21.48 21.48 0 0 0-6.21-4.16 20.011 20.011 0 0 0-8.37-1.6 22.635 22.635 0 0 0-10.37 2.39 23.355 23.355 0 0 0-7.92 6.38 29.384 29.384 0 0 0-5.07 9.68 39.853 39.853 0 0 0-1.77 12.08 48.166 48.166 0 0 0 1.54 12.76 28.784 28.784 0 0 0 4.44 9.4 19.908 19.908 0 0 0 6.89 5.75 19.332 19.332 0 0 0 8.77 2 22.494 22.494 0 0 0 5.7-.68 20.818 20.818 0 0 0 5-1.82 23.644 23.644 0 0 0 4.33-2.85 34.945 34.945 0 0 0 3.82-3.7l1.2 5.64a3.307 3.307 0 0 0 3.53 2.56h8.6v-84.71Zm24.82 57.2H504a2.865 2.865 0 0 0 2.62-1.08c.567-1.369.8-2.853.68-4.33a30.364 30.364 0 0 0-1.94-11.22 23.241 23.241 0 0 0-5.24-8.32 22.014 22.014 0 0 0-8-5.18 28.622 28.622 0 0 0-10.2-1.77 29.295 29.295 0 0 0-11.79 2.28 26.338 26.338 0 0 0-8.83 6.21 26.929 26.929 0 0 0-5.53 9.17 32.11 32.11 0 0 0-1.94 11.22 38.135 38.135 0 0 0 2.17 13.56 28.398 28.398 0 0 0 6.1 9.8 25.881 25.881 0 0 0 9.12 6 31.619 31.619 0 0 0 11.34 2 45.477 45.477 0 0 0 6.32-.46 33.77 33.77 0 0 0 6.42-1.57 31.122 31.122 0 0 0 6.1-3 24.095 24.095 0 0 0 5.24-4.61l-4-5.13a2.926 2.926 0 0 0-1.15-.986 2.922 2.922 0 0 0-1.49-.274 5.61 5.61 0 0 0-2.73.8 71.226 71.226 0 0 1-3.25 1.77 26.151 26.151 0 0 1-4.33 1.77 19.058 19.058 0 0 1-5.87.8 18.367 18.367 0 0 1-6.27-1 13.442 13.442 0 0 1-4.84-3.19 16.269 16.269 0 0 1-3.3-5.41 28 28 0 0 1-1.63-7.85h.04Zm103.71-3.25a42.7 42.7 0 0 0-1.53-11.91 26.288 26.288 0 0 0-4.44-9 19.136 19.136 0 0 0-7-5.75 20.358 20.358 0 0 0-9.12-2c-3.418-.062-6.8.699-9.86 2.22a28.145 28.145 0 0 0-7.81 5.92v-33.43h-14.06v84.66H527a3.5 3.5 0 0 0 2.22-.63 3.462 3.462 0 0 0 1.2-2.11l.63-3.93a33.339 33.339 0 0 0 3 3.13 18.733 18.733 0 0 0 3.42 2.34 17.478 17.478 0 0 0 4.1 1.48c1.637.393 3.316.585 5 .57a22.467 22.467 0 0 0 18.12-8.66 29.748 29.748 0 0 0 5.07-10 44.407 44.407 0 0 0 1.73-12.9h.04Zm21.8 3.25h36.18a2.865 2.865 0 0 0 2.62-1.08c.567-1.369.8-2.853.68-4.33a30.384 30.384 0 0 0-1.94-11.22 23.241 23.241 0 0 0-5.24-8.32 22.014 22.014 0 0 0-8-5.18 28.622 28.622 0 0 0-10.2-1.77 29.295 29.295 0 0 0-11.79 2.28 26.338 26.338 0 0 0-8.83 6.21 26.929 26.929 0 0 0-5.53 9.17 32.11 32.11 0 0 0-1.94 11.22 38.135 38.135 0 0 0 2.22 13.56 28.398 28.398 0 0 0 6.1 9.8 25.881 25.881 0 0 0 9.12 6 31.619 31.619 0 0 0 11.34 2 45.477 45.477 0 0 0 6.32-.46 33.763 33.763 0 0 0 6.44-1.54 31.122 31.122 0 0 0 6.1-3 24.095 24.095 0 0 0 5.24-4.61l-4-5.13a2.913 2.913 0 0 0-2.62-1.31 5.599 5.599 0 0 0-2.73.8 71.226 71.226 0 0 1-3.25 1.77 26.151 26.151 0 0 1-4.33 1.77 19.058 19.058 0 0 1-5.87.8 18.367 18.367 0 0 1-6.27-1 13.442 13.442 0 0 1-4.84-3.19 16.269 16.269 0 0 1-3.3-5.41 28.025 28.025 0 0 1-1.71-7.83h.03Zm85.08-30.31a10.874 10.874 0 0 0-6.49-1.77c-3.224-.072-6.37.99-8.89 3a25.491 25.491 0 0 0-6.55 8.2l-.8-6.61a4.385 4.385 0 0 0-1.14-2.73 4.43 4.43 0 0 0-3-.8h-8.26v58.45h14.02v-36a32.756 32.756 0 0 1 2.05-4.16 13.81 13.81 0 0 1 2.56-3.08 10.533 10.533 0 0 1 3.3-2 11.803 11.803 0 0 1 4.16-.68c1.089.001 2.176.094 3.25.28.845.158 1.701.251 2.56.28a2.267 2.267 0 0 0 1.42-.4 2.79 2.79 0 0 0 .85-1.48l.96-10.5Zm57.74 6.55v-5.24h-16.84a24.293 24.293 0 0 0-6.1-2.22 29.36 29.36 0 0 0-7-.8 31.548 31.548 0 0 0-9.29 1.31 22.151 22.151 0 0 0-7.35 3.82 17.643 17.643 0 0 0-4.84 6 17.435 17.435 0 0 0-1.71 7.8 17.178 17.178 0 0 0 2.51 9.34 18.663 18.663 0 0 0 7 6.38 17.109 17.109 0 0 0-3.42 2.22 13.717 13.717 0 0 0-2.39 2.56 11.15 11.15 0 0 0-1.37 2.79 8.407 8.407 0 0 0-.46 2.68 9.096 9.096 0 0 0 1.37 5.24 9.914 9.914 0 0 0 3.65 3.19 17.3 17.3 0 0 0-6.78 4.44 9.996 9.996 0 0 0-2.45 6.84 11.543 11.543 0 0 0 1.6 5.81 14.487 14.487 0 0 0 4.84 4.9 26.442 26.442 0 0 0 8.15 3.42 44.813 44.813 0 0 0 11.51 1.31 37.401 37.401 0 0 0 12-1.77 27.987 27.987 0 0 0 8.89-4.56 19.734 19.734 0 0 0 5.53-6.49 15.852 15.852 0 0 0 1.94-7.52 12.53 12.53 0 0 0-1.65-6.78 11.668 11.668 0 0 0-4.27-4.22 20.017 20.017 0 0 0-6.1-2.22 52.955 52.955 0 0 0-7-1 107.054 107.054 0 0 0-7-.34c-2.274-.033-4.307-.186-6.1-.46a14.225 14.225 0 0 1-4.33-1.14 2.782 2.782 0 0 1-1.6-2.62c0-1.366.91-2.6 2.73-3.7a32.76 32.76 0 0 0 6.44.63 29.773 29.773 0 0 0 9-1.31 22.925 22.925 0 0 0 7.29-3.82 17.787 17.787 0 0 0 6.21-17.26 16.56 16.56 0 0 0-.85-3.13l5.24-1c1.98-.38 2.97-1.406 2.97-3.08h.03Z" fill="#fff"/></g><defs><clipPath id="a"><path fill="#fff" d="M0 0h1024v1024H0z"/></clipPath></defs></svg>

<svg width="1024" height="1024" viewBox="0 0 1024 1024" fill="none" xmlns="http://www.w3.org/2000/svg">
<g clip-path="url(#clip0_3_509)">
<path d="M512 1024C794.77 1024 1024 794.77 1024 512C1024 229.23 794.77 0 512 0C229.23 0 0 229.23 0 512C0 794.77 229.23 1024 512 1024Z" fill="#9ABEFF"/>
<path d="M553.78 583.048C555.926 585.902 557 590.552 557 596.998C557.04 600.104 556.705 603.203 556 606.228C555.479 608.493 554.532 610.638 553.21 612.548C552.066 614.125 550.538 615.382 548.77 616.198C546.935 616.983 544.955 617.372 542.96 617.338C540.905 617.347 538.868 616.96 536.96 616.198C534.919 615.257 533.14 613.828 531.78 612.038V585.788C533.384 583.744 535.329 581.991 537.53 580.608C539.657 579.324 542.106 578.672 544.59 578.728C546.359 578.631 548.126 578.975 549.73 579.729C551.334 580.483 552.726 581.623 553.78 583.048ZM617.06 581.798C615.993 580.552 614.646 579.575 613.13 578.948C611.407 578.194 609.54 577.825 607.66 577.868C603.56 577.868 600.35 579.028 598.03 581.348C595.71 583.668 594.23 586.955 593.59 591.208H620.14C620.152 589.466 619.882 587.734 619.34 586.078C618.88 584.509 618.1 583.052 617.05 581.798H617.06ZM491.55 581.798C490.483 580.552 489.136 579.575 487.62 578.948C485.897 578.194 484.03 577.825 482.15 577.868C478.05 577.868 474.84 579.028 472.52 581.348C470.2 583.668 468.72 586.955 468.08 591.208H494.63C494.642 589.466 494.372 587.734 493.83 586.078C493.37 584.509 492.59 583.052 491.54 581.798H491.55ZM352.65 578.548C347.71 578.548 344.043 580.215 341.65 583.548C339.256 586.882 338.08 591.668 338.12 597.908C338.12 604.175 339.296 608.962 341.65 612.268C344.003 615.575 347.67 617.208 352.65 617.168C357.51 617.168 361.1 615.535 363.42 612.268C365.74 609.002 366.916 604.215 366.95 597.908C366.95 591.602 365.773 586.798 363.42 583.498C361.066 580.198 357.473 578.548 352.64 578.548H352.65ZM423.65 579.548C421.752 578.745 419.71 578.337 417.65 578.348C415.668 578.32 413.705 578.73 411.9 579.548C410.153 580.376 408.643 581.632 407.51 583.198C406.18 585.042 405.231 587.133 404.72 589.348C404.018 592.218 403.682 595.164 403.72 598.118C403.673 601.045 403.941 603.969 404.52 606.838C404.967 608.901 405.776 610.868 406.91 612.648C407.845 614.053 409.144 615.177 410.67 615.898C412.248 616.578 413.951 616.918 415.67 616.898C418.275 616.979 420.854 616.349 423.13 615.078C425.357 613.708 427.324 611.954 428.94 609.898V583.618C427.54 581.838 425.723 580.429 423.65 579.518V579.548ZM706.21 577.548C702.756 577.548 700.156 578.402 698.41 580.108C697.535 581.01 696.856 582.084 696.415 583.261C695.975 584.438 695.782 585.693 695.85 586.948C695.839 588.248 696.052 589.541 696.48 590.768C696.915 591.914 697.574 592.961 698.42 593.848C699.358 594.726 700.463 595.406 701.67 595.848C703.142 596.325 704.683 596.555 706.23 596.528C707.777 596.561 709.319 596.331 710.79 595.848C711.982 595.414 713.069 594.732 713.98 593.848C714.854 593.015 715.519 591.987 715.92 590.848C716.385 589.612 716.615 588.299 716.6 586.978C716.667 585.718 716.468 584.458 716.017 583.28C715.566 582.101 714.872 581.031 713.98 580.138C712.253 578.398 709.663 577.528 706.21 577.528V577.548ZM694.36 626.368C693.419 627.525 692.916 628.977 692.94 630.468C692.932 631.467 693.187 632.45 693.68 633.318C694.28 634.298 695.124 635.104 696.13 635.658C697.504 636.384 698.986 636.884 700.52 637.138C704.931 637.915 709.446 637.895 713.85 637.078C715.488 636.793 717.066 636.235 718.52 635.428C719.645 634.861 720.59 633.992 721.25 632.918C721.815 631.973 722.109 630.89 722.1 629.788C722.126 629.289 722.051 628.79 721.879 628.321C721.707 627.852 721.442 627.422 721.1 627.058C720.318 626.276 719.362 625.69 718.31 625.348C716.961 624.893 715.566 624.588 714.15 624.438C712.59 624.252 710.923 624.118 709.15 624.038C707.376 623.958 705.553 623.865 703.68 623.758C701.82 623.685 699.996 623.532 698.21 623.298C696.752 624.072 695.447 625.106 694.36 626.348V626.368ZM861.08 688.278L188.93 682.278L381.41 267.738L542.67 408.848L484.51 475.318L464.91 458.168L444.21 481.818L487.47 519.668L574.83 419.828L574.55 419.588L613.47 375.108L861.08 688.278ZM332.72 436.068L356.38 456.758L416.75 387.758L463.31 428.488L484 404.798L413.79 343.368L332.72 436.068ZM319.06 618.428L315.06 613.298C314.787 612.873 314.406 612.528 313.956 612.298C313.507 612.068 313.004 611.961 312.5 611.988C311.629 611.987 310.784 612.287 310.11 612.838C309.443 613.372 308.626 613.978 307.66 614.658C306.55 615.387 305.367 615.997 304.13 616.478C302.389 617.069 300.557 617.34 298.72 617.278C296.652 617.307 294.604 616.88 292.72 616.028C290.926 615.149 289.364 613.861 288.16 612.268C286.818 610.416 285.831 608.331 285.25 606.118C283.976 600.745 283.955 595.151 285.19 589.768C285.702 587.58 286.629 585.509 287.92 583.668C289.135 582.027 290.74 580.714 292.59 579.848C296.173 578.3 300.187 578.059 303.93 579.168C305.124 579.526 306.272 580.023 307.35 580.648C308.296 581.182 309.113 581.675 309.8 582.128C310.43 582.532 311.161 582.75 311.91 582.758C312.515 582.802 313.118 582.639 313.62 582.298C314.091 581.94 314.512 581.52 314.87 581.048L318.57 575.918C316.021 573.364 313.002 571.327 309.68 569.918C306.047 568.442 302.15 567.724 298.23 567.808C294.042 567.714 289.88 568.48 286 570.058C282.604 571.479 279.567 573.637 277.11 576.378C274.655 579.141 272.793 582.377 271.64 585.888C269.133 593.953 269.213 602.601 271.87 610.618C273.137 614.112 275.073 617.326 277.57 620.078C279.909 622.622 282.762 624.639 285.94 625.998C289.172 627.338 292.64 628.018 296.14 627.998C298.198 627.996 300.254 627.842 302.29 627.538C306.49 626.946 310.498 625.393 314 622.998C315.878 621.702 317.579 620.166 319.06 618.428ZM381.46 597.808C381.518 593.56 380.824 589.335 379.41 585.328C378.157 581.789 376.155 578.562 373.54 575.868C370.967 573.235 367.856 571.188 364.42 569.868C360.66 568.421 356.658 567.705 352.63 567.758C348.562 567.704 344.521 568.42 340.72 569.868C337.273 571.198 334.148 573.243 331.55 575.868C328.96 578.582 326.962 581.803 325.68 585.328C322.947 593.438 322.947 602.219 325.68 610.328C326.971 613.864 328.968 617.099 331.55 619.838C334.14 622.473 337.268 624.519 340.72 625.838C344.521 627.305 348.566 628.037 352.64 627.998C356.668 628.052 360.67 627.336 364.43 625.888C367.872 624.579 370.985 622.531 373.55 619.888C376.157 617.169 378.157 613.928 379.42 610.378C380.838 606.342 381.529 602.086 381.46 597.808ZM443 542.488H428.89V573.368C427.079 571.629 424.977 570.221 422.68 569.208C420.037 568.08 417.182 567.534 414.31 567.608C410.712 567.569 407.157 568.389 403.94 569.998C400.863 571.517 398.159 573.696 396.02 576.378C393.739 579.26 392.02 582.543 390.95 586.058C389.743 589.97 389.146 594.045 389.18 598.138C389.121 602.441 389.639 606.733 390.72 610.898C391.617 614.275 393.122 617.46 395.16 620.298C396.989 622.714 399.346 624.681 402.05 626.048C404.775 627.395 407.78 628.08 410.82 628.048C412.741 628.066 414.656 627.837 416.52 627.368C418.257 626.978 419.938 626.366 421.52 625.548C423.063 624.76 424.515 623.804 425.85 622.698C427.215 621.564 428.492 620.327 429.67 618.998L430.87 624.638C431.048 625.42 431.504 626.111 432.154 626.582C432.803 627.053 433.601 627.272 434.4 627.198H443V542.488ZM467.82 599.688H504C504.493 599.751 504.993 599.685 505.453 599.496C505.912 599.306 506.314 599 506.62 598.608C507.187 597.239 507.42 595.755 507.3 594.278C507.367 590.449 506.708 586.642 505.36 583.058C504.227 579.943 502.44 577.106 500.12 574.738C497.864 572.448 495.133 570.68 492.12 569.558C488.856 568.353 485.399 567.753 481.92 567.788C477.874 567.726 473.86 568.502 470.13 570.068C466.789 571.506 463.783 573.621 461.3 576.278C458.861 578.934 456.981 582.052 455.77 585.448C454.46 589.043 453.803 592.843 453.83 596.668C453.727 601.282 454.462 605.877 456 610.228C457.341 613.878 459.417 617.213 462.1 620.028C464.679 622.654 467.788 624.699 471.22 626.028C474.845 627.383 478.689 628.061 482.56 628.028C484.674 628.022 486.786 627.868 488.88 627.568C491.066 627.256 493.216 626.73 495.3 625.998C497.436 625.224 499.482 624.218 501.4 622.998C503.361 621.724 505.126 620.171 506.64 618.388L502.64 613.258C502.35 612.834 501.953 612.494 501.49 612.272C501.026 612.051 500.512 611.957 500 611.998C499.036 612.026 498.096 612.301 497.27 612.798C496.356 613.332 495.273 613.922 494.02 614.568C492.632 615.286 491.183 615.879 489.69 616.338C487.787 616.909 485.806 617.179 483.82 617.138C481.688 617.171 479.566 616.833 477.55 616.138C475.724 615.439 474.072 614.351 472.71 612.948C471.266 611.379 470.145 609.54 469.41 607.538C468.493 605.013 467.944 602.37 467.78 599.688H467.82ZM571.53 596.438C571.584 592.416 571.068 588.406 570 584.528C569.112 581.271 567.604 578.215 565.56 575.528C563.721 573.079 561.32 571.107 558.56 569.778C555.716 568.414 552.594 567.729 549.44 567.778C546.022 567.716 542.64 568.477 539.58 569.998C536.65 571.5 534.007 573.503 531.77 575.918V542.488H517.71V627.148H527C527.79 627.195 528.572 626.973 529.22 626.518C529.861 625.983 530.288 625.233 530.42 624.408L531.05 620.478C531.981 621.585 532.983 622.631 534.05 623.608C535.1 624.512 536.247 625.297 537.47 625.948C538.769 626.61 540.147 627.108 541.57 627.428C543.207 627.821 544.886 628.013 546.57 627.998C550.055 628.059 553.506 627.308 556.651 625.805C559.796 624.302 562.548 622.088 564.69 619.338C566.998 616.357 568.719 612.963 569.76 609.338C570.967 605.147 571.55 600.8 571.49 596.438H571.53ZM593.33 599.688H629.51C630.003 599.751 630.503 599.685 630.963 599.496C631.422 599.306 631.824 599 632.13 598.608C632.697 597.239 632.93 595.755 632.81 594.278C632.876 590.449 632.218 586.642 630.87 583.058C629.737 579.943 627.95 577.106 625.63 574.738C623.374 572.448 620.643 570.68 617.63 569.558C614.366 568.353 610.909 567.753 607.43 567.788C603.384 567.726 599.37 568.502 595.64 570.068C592.299 571.506 589.293 573.621 586.81 576.278C584.371 578.934 582.491 582.052 581.28 585.448C579.97 589.043 579.313 592.843 579.34 596.668C579.253 601.285 580.005 605.88 581.56 610.228C582.901 613.878 584.977 617.213 587.66 620.028C590.239 622.654 593.348 624.699 596.78 626.028C600.405 627.383 604.249 628.061 608.12 628.028C610.234 628.022 612.346 627.868 614.44 627.568C616.632 627.267 618.789 626.751 620.88 626.028C623.016 625.254 625.062 624.248 626.98 623.028C628.941 621.754 630.706 620.201 632.22 618.418L628.22 613.288C627.938 612.858 627.547 612.51 627.087 612.28C626.626 612.049 626.113 611.945 625.6 611.978C624.636 612.005 623.696 612.281 622.87 612.778C621.956 613.312 620.873 613.902 619.62 614.548C618.232 615.266 616.783 615.859 615.29 616.318C613.387 616.889 611.406 617.159 609.42 617.118C607.288 617.151 605.166 616.813 603.15 616.118C601.324 615.419 599.672 614.331 598.31 612.928C596.866 611.359 595.745 609.52 595.01 607.518C594.068 605.004 593.492 602.367 593.3 599.688H593.33ZM678.41 569.378C676.488 568.117 674.216 567.497 671.92 567.608C668.696 567.536 665.55 568.598 663.03 570.608C660.301 572.858 658.071 575.65 656.48 578.808L655.68 572.198C655.628 571.184 655.225 570.219 654.54 569.468C653.669 568.848 652.603 568.564 651.54 568.668H643.28V627.118H657.3V591.118C657.884 589.685 658.569 588.295 659.35 586.958C660.049 585.813 660.911 584.775 661.91 583.878C662.877 583.014 663.996 582.336 665.21 581.878C666.544 581.404 667.953 581.173 669.37 581.198C670.459 581.199 671.546 581.292 672.62 581.478C673.465 581.636 674.321 581.729 675.18 581.758C675.684 581.787 676.184 581.646 676.6 581.358C677.031 580.966 677.328 580.448 677.45 579.878L678.41 569.378ZM736.15 575.928V570.688H719.31C717.385 569.678 715.333 568.932 713.21 568.468C710.917 567.921 708.567 567.653 706.21 567.668C703.065 567.639 699.934 568.081 696.92 568.978C694.251 569.778 691.758 571.074 689.57 572.798C687.534 574.417 685.881 576.466 684.73 578.798C683.564 581.231 682.979 583.901 683.02 586.598C682.945 589.888 683.816 593.129 685.53 595.938C687.276 598.631 689.687 600.829 692.53 602.318C691.305 602.919 690.157 603.665 689.11 604.538C688.207 605.286 687.404 606.146 686.72 607.098C686.135 607.96 685.674 608.899 685.35 609.888C685.052 610.751 684.897 611.656 684.89 612.568C684.804 614.414 685.282 616.241 686.26 617.808C687.194 619.157 688.448 620.253 689.91 620.998C687.33 621.921 685.006 623.442 683.13 625.438C681.484 627.33 680.61 629.772 680.68 632.278C680.689 634.322 681.242 636.327 682.28 638.088C683.476 640.087 685.136 641.767 687.12 642.988C689.625 644.577 692.38 645.733 695.27 646.408C699.034 647.341 702.903 647.781 706.78 647.718C710.849 647.785 714.903 647.187 718.78 645.948C721.992 644.974 725.004 643.429 727.67 641.388C729.964 639.654 731.851 637.439 733.2 634.898C734.46 632.591 735.127 630.007 735.14 627.378C735.243 625.008 734.671 622.656 733.49 620.598C732.459 618.843 730.987 617.388 729.22 616.378C727.321 615.311 725.26 614.561 723.12 614.158C720.811 613.669 718.473 613.335 716.12 613.158C713.726 612.965 711.393 612.852 709.12 612.818C706.846 612.785 704.813 612.632 703.02 612.358C701.525 612.209 700.064 611.824 698.69 611.218C698.196 610.986 697.781 610.614 697.497 610.148C697.213 609.682 697.071 609.144 697.09 608.598C697.09 607.232 698 605.998 699.82 604.898C701.94 605.32 704.098 605.531 706.26 605.528C709.309 605.555 712.344 605.113 715.26 604.218C717.9 603.395 720.37 602.101 722.55 600.398C725.055 598.357 726.957 595.671 728.051 592.63C729.145 589.589 729.39 586.308 728.76 583.138C728.58 582.07 728.295 581.021 727.91 580.008L733.15 579.008C735.13 578.628 736.12 577.602 736.12 575.928H736.15Z" fill="white"/>
</g>
<defs>
<clipPath id="clip0_3_509">
<rect width="1024" height="1024" fill="white"/>
</clipPath>
</defs>
</svg>
